X:1
T:Barrington Hornpipe

M:C|

L:1/8

R:Hornpipe

K:G

Bc|d>bg>d B>gd>B|G>ec>A F>dB>G|D>EF>G ABcd|ed^cd A2Bc|

d>bg>d B>gd>B|G>ec>A F>dB>G|DEFG A>ed>F|G2B2G2:|

|:Bc|d^cdB G>Bd>g|e^de=c A>ce>g|dbca BgAG|F>ed>^c d2Bc|

d/e/d/^c/dB G>Bd>g|e^de=c Aceg|dgfe (3ded (3cBA|(3GBd (3gdB G2:|

                       

BARRINGTON POLKA.  English, Polka. England, Northumberland. C Major. Standard tuning. AABBCC. Composed by musician, teacher, composer, dancing master and fiddler Robert Whinham (1814-1893), originally from Morpeth. Dixon (1995) notes that Barrington Colliery was in the area of Ashington, Northumberland. Source for notated version: the 19th century R. Davidson manuscript, in the Beamish Museum [Dixon]. Dixon (Remember Me), 1995; pg. 42.

 

BARRONSTOWN RACES, THE (Coimleanga Baile-Barroin). Irish, Double Jig. G Major. Standard tuning. AABBCCDD. The first meeting of the Tipperary races was at Barronstown Course in March, 1848. These races were abandoned in 1871/72 due to an outbreak of smallpox, but were revived in 1881. The first race meeting on the present site of Limerick Junction was in September, 1916, and subsequently the name of the course was changed from Limerick Junction to Tipperary in 1986. O'Neill (Krassen), 1976; pg. 59. O'Neill (Music of Ireland: 1850 Melodies), 1903/1979; No. 1038, pg. 194. O'Neill (Dance Music of Ireland: 1001 Gems), 1907/1986; No. 248, pg. 55.

